static/img/kroki/357a3368c59d4b59e85aa7c04dc07061.svg

<?xml version="1.0" encoding="us-ascii" standalone="no"?><svg xmlns="http://www.w3.org/2000/svg" xmlns:xlink="http://www.w3.org/1999/xlink" contentStyleType="text/css" height="1004px" preserveAspectRatio="none" style="width:490px;height:1004px;" version="1.1" viewBox="0 0 490 1004" width="490px" zoomAndPan="magnify"><defs/><g><!--class azure_network_load_balancer_probe--><g id="elem_azure_network_load_balancer_probe"><rect codeLine="23" fill="#3D176E" height="258.1641" id="azure_network_load_balancer_probe" rx="2.5" ry="2.5" style="stroke:#000D19;stroke-width:0.5;" width="347" x="74" y="739.04"/><ellipse cx="89" cy="758.9345" fill="#ADD1B2" rx="11" ry="11" style="stroke:#181818;stroke-width:1.0;"/><path d="M91.9688,764.5752 Q91.3906,764.872 90.75,765.0127 Q90.1094,765.1689 89.4063,765.1689 Q86.9063,765.1689 85.5781,763.5283 Q84.2656,761.872 84.2656,758.747 Q84.2656,755.622 85.5781,753.9658 Q86.9063,752.3095 89.4063,752.3095 Q90.1094,752.3095 90.75,752.4658 Q91.4063,752.622 91.9688,752.9189 L91.9688,755.6377 Q91.3438,755.0595 90.75,754.7939 Q90.1563,754.5127 89.5313,754.5127 Q88.1875,754.5127 87.5,755.5908 Q86.8125,756.6533 86.8125,758.747 Q86.8125,760.8408 87.5,761.9189 Q88.1875,762.9814 89.5313,762.9814 Q90.1563,762.9814 90.75,762.7158 Q91.3438,762.4345 91.9688,761.8564 L91.9688,764.5752 Z " fill="#000000"/><text fill="#D9B8FF" font-family="Helvetica" font-size="17" lengthAdjust="spacing" textLength="305" x="108" y="764.8198">azure_network_load_balancer_probe</text><line style="stroke:#000D19;stroke-width:0.5;" x1="75" x2="420" y1="778.8291" y2="778.8291"/><text fill="#D9B8FF" font-family="sans-serif" font-size="14" font-weight="bold" lengthAdjust="spacing" textLength="154" x="85" y="800.8242">interval_in_seconds</text><text fill="#D9B8FF" font-family="sans-serif" font-size="14" lengthAdjust="spacing" textLength="44" x="239" y="800.8242">: int64</text><text fill="#D9B8FF" font-family="sans-serif" font-size="14" font-weight="bold" lengthAdjust="spacing" textLength="192" x="85" y="827.1211">load_balancing_rules_ids</text><text fill="#D9B8FF" font-family="sans-serif" font-size="14" lengthAdjust="spacing" textLength="58" x="277" y="827.1211">: string[]</text><text fill="#D9B8FF" font-family="sans-serif" font-size="14" font-weight="bold" lengthAdjust="spacing" textLength="244" x="85" y="853.4179">no_healthy_backends_behavior</text><text fill="#D9B8FF" font-family="sans-serif" font-size="14" lengthAdjust="spacing" textLength="48" x="329" y="853.4179">: string</text><text fill="#D9B8FF" font-family="sans-serif" font-size="14" font-weight="bold" lengthAdjust="spacing" textLength="147" x="85" y="879.7148">number_of_probes</text><text fill="#D9B8FF" font-family="sans-serif" font-size="14" lengthAdjust="spacing" textLength="44" x="232" y="879.7148">: int64</text><text fill="#D9B8FF" font-family="sans-serif" font-size="14" font-weight="bold" lengthAdjust="spacing" textLength="33" x="85" y="906.0117">port</text><text fill="#D9B8FF" font-family="sans-serif" font-size="14" lengthAdjust="spacing" textLength="44" x="118" y="906.0117">: int64</text><text fill="#D9B8FF" font-family="sans-serif" font-size="14" font-weight="bold" lengthAdjust="spacing" textLength="130" x="85" y="932.3086">probe_threshold</text><text fill="#D9B8FF" font-family="sans-serif" font-size="14" lengthAdjust="spacing" textLength="44" x="215" y="932.3086">: int64</text><text fill="#D9B8FF" font-family="sans-serif" font-size="14" font-weight="bold" lengthAdjust="spacing" textLength="66" x="85" y="958.6054">protocol</text><text fill="#D9B8FF" font-family="sans-serif" font-size="14" lengthAdjust="spacing" textLength="48" x="151" y="958.6054">: string</text><text fill="#D9B8FF" font-family="sans-serif" font-size="14" font-weight="bold" lengthAdjust="spacing" textLength="104" x="85" y="984.9023">request_path</text><text fill="#D9B8FF" font-family="sans-serif" font-size="14" lengthAdjust="spacing" textLength="48" x="189" y="984.9023">: string</text></g><!--class health_check--><g id="elem_health_check"><rect codeLine="33" fill="#3D176E" height="179.2734" id="health_check" rx="2.5" ry="2.5" style="stroke:#000D19;stroke-width:0.5;" width="227" x="7" y="438.76"/><ellipse cx="56.25" cy="458.6545" fill="#ADD1B2" rx="11" ry="11" style="stroke:#181818;stroke-width:1.0;"/><path d="M59.2188,464.2952 Q58.6406,464.592 58,464.7327 Q57.3594,464.8889 56.6563,464.8889 Q54.1563,464.8889 52.8281,463.2483 Q51.5156,461.592 51.5156,458.467 Q51.5156,455.342 52.8281,453.6858 Q54.1563,452.0295 56.6563,452.0295 Q57.3594,452.0295 58,452.1858 Q58.6563,452.342 59.2188,452.6389 L59.2188,455.3577 Q58.5938,454.7795 58,454.5139 Q57.4063,454.2327 56.7813,454.2327 Q55.4375,454.2327 54.75,455.3108 Q54.0625,456.3733 54.0625,458.467 Q54.0625,460.5608 54.75,461.6389 Q55.4375,462.7014 56.7813,462.7014 Q57.4063,462.7014 58,462.4358 Q58.5938,462.1545 59.2188,461.5764 L59.2188,464.2952 Z " fill="#000000"/><text fill="#D9B8FF" font-family="Helvetica" font-size="17" lengthAdjust="spacing" textLength="110" x="81.75" y="464.5398">health_check</text><line style="stroke:#000D19;stroke-width:0.5;" x1="8" x2="233" y1="478.5491" y2="478.5491"/><text fill="#D9B8FF" font-family="sans-serif" font-size="14" font-weight="bold" lengthAdjust="spacing" textLength="113" x="18" y="500.5442">check_interval</text><text fill="#D9B8FF" font-family="sans-serif" font-size="14" lengthAdjust="spacing" textLength="44" x="131" y="500.5442">: int64</text><text fill="#D9B8FF" font-family="sans-serif" font-size="14" font-weight="bold" lengthAdjust="spacing" textLength="145" x="18" y="526.8411">health_check_type</text><text fill="#D9B8FF" font-family="sans-serif" font-size="14" lengthAdjust="spacing" textLength="48" x="163" y="526.8411">: string</text><text fill="#D9B8FF" font-family="sans-serif" font-size="14" font-weight="bold" lengthAdjust="spacing" textLength="141" x="18" y="553.1379">healthy_threshold</text><text fill="#D9B8FF" font-family="sans-serif" font-size="14" lengthAdjust="spacing" textLength="44" x="159" y="553.1379">: int64</text><text fill="#D9B8FF" font-family="sans-serif" font-size="14" font-weight="bold" lengthAdjust="spacing" textLength="60" x="18" y="579.4348">timeout</text><text fill="#D9B8FF" font-family="sans-serif" font-size="14" lengthAdjust="spacing" textLength="44" x="78" y="579.4348">: int64</text><text fill="#D9B8FF" font-family="sans-serif" font-size="14" font-weight="bold" lengthAdjust="spacing" textLength="161" x="18" y="605.7317">unhealthy_threshold</text><text fill="#D9B8FF" font-family="sans-serif" font-size="14" lengthAdjust="spacing" textLength="44" x="179" y="605.7317">: int64</text></g><!--class microsoft_resource--><g id="elem_microsoft_resource"><rect codeLine="40" fill="#3D176E" height="100.3828" id="microsoft_resource" rx="2.5" ry="2.5" style="stroke:#000D19;stroke-width:0.5;" width="214" x="269.5" y="478.21"/><ellipse cx="290.8" cy="498.1045" fill="#ADD1B2" rx="11" ry="11" style="stroke:#181818;stroke-width:1.0;"/><path d="M293.7688,503.7452 Q293.1906,504.042 292.55,504.1827 Q291.9094,504.3389 291.2063,504.3389 Q288.7063,504.3389 287.3781,502.6983 Q286.0656,501.042 286.0656,497.917 Q286.0656,494.792 287.3781,493.1358 Q288.7063,491.4795 291.2063,491.4795 Q291.9094,491.4795 292.55,491.6358 Q293.2063,491.792 293.7688,492.0889 L293.7688,494.8077 Q293.1438,494.2295 292.55,493.9639 Q291.9563,493.6827 291.3313,493.6827 Q289.9875,493.6827 289.3,494.7608 Q288.6125,495.8233 288.6125,497.917 Q288.6125,500.0108 289.3,501.0889 Q289.9875,502.1514 291.3313,502.1514 Q291.9563,502.1514 292.55,501.8858 Q293.1438,501.6045 293.7688,501.0264 L293.7688,503.7452 Z " fill="#000000"/><text fill="#D9B8FF" font-family="Helvetica" font-size="17" lengthAdjust="spacing" textLength="158" x="311.2" y="503.9898">microsoft_resource</text><line style="stroke:#000D19;stroke-width:0.5;" x1="270.5" x2="482.5" y1="517.9991" y2="517.9991"/><text fill="#D9B8FF" font-family="sans-serif" font-size="14" font-weight="bold" lengthAdjust="spacing" textLength="35" x="280.5" y="539.9942">etag</text><text fill="#D9B8FF" font-family="sans-serif" font-size="14" lengthAdjust="spacing" textLength="48" x="315.5" y="539.9942">: string</text><text fill="#D9B8FF" font-family="sans-serif" font-size="14" font-weight="bold" lengthAdjust="spacing" textLength="144" x="280.5" y="566.2911">provisioning_state</text><text fill="#D9B8FF" font-family="sans-serif" font-size="14" lengthAdjust="spacing" textLength="48" x="424.5" y="566.2911">: string</text></g><!--class resource--><g id="elem_resource"><rect codeLine="44" fill="#3D176E" height="310.7578" id="resource" rx="2.5" ry="2.5" style="stroke:#000D19;stroke-width:0.5;" width="227" x="134" y="7"/><ellipse cx="202.75" cy="26.8945" fill="#ADD1B2" rx="11" ry="11" style="stroke:#181818;stroke-width:1.0;"/><path d="M205.7188,32.5352 Q205.1406,32.832 204.5,32.9727 Q203.8594,33.1289 203.1563,33.1289 Q200.6563,33.1289 199.3281,31.4883 Q198.0156,29.832 198.0156,26.707 Q198.0156,23.582 199.3281,21.9258 Q200.6563,20.2695 203.1563,20.2695 Q203.8594,20.2695 204.5,20.4258 Q205.1563,20.582 205.7188,20.8789 L205.7188,23.5977 Q205.0938,23.0195 204.5,22.7539 Q203.9063,22.4727 203.2813,22.4727 Q201.9375,22.4727 201.25,23.5508 Q200.5625,24.6133 200.5625,26.707 Q200.5625,28.8008 201.25,29.8789 Q201.9375,30.9414 203.2813,30.9414 Q203.9063,30.9414 204.5,30.6758 Q205.0938,30.3945 205.7188,29.8164 L205.7188,32.5352 Z " fill="#000000"/><text fill="#D9B8FF" font-family="Helvetica" font-size="17" lengthAdjust="spacing" textLength="71" x="228.25" y="32.7798">resource</text><line style="stroke:#000D19;stroke-width:0.5;" x1="135" x2="360" y1="46.7891" y2="46.7891"/><text fill="#D9B8FF" font-family="sans-serif" font-size="14" font-weight="bold" lengthAdjust="spacing" textLength="29" x="145" y="68.7842">age</text><text fill="#D9B8FF" font-family="sans-serif" font-size="14" lengthAdjust="spacing" textLength="66" x="174" y="68.7842">: duration</text><text fill="#D9B8FF" font-family="sans-serif" font-size="14" font-weight="bold" lengthAdjust="spacing" textLength="43" x="145" y="95.0811">atime</text><text fill="#D9B8FF" font-family="sans-serif" font-size="14" lengthAdjust="spacing" textLength="70" x="188" y="95.0811">: datetime</text><text fill="#D9B8FF" font-family="sans-serif" font-size="14" font-weight="bold" lengthAdjust="spacing" textLength="43" x="145" y="121.3779">ctime</text><text fill="#D9B8FF" font-family="sans-serif" font-size="14" lengthAdjust="spacing" textLength="70" x="188" y="121.3779">: datetime</text><text fill="#D9B8FF" font-family="sans-serif" font-size="14" font-weight="bold" lengthAdjust="spacing" textLength="14" x="145" y="147.6748">id</text><text fill="#D9B8FF" font-family="sans-serif" font-size="14" lengthAdjust="spacing" textLength="48" x="159" y="147.6748">: string</text><text fill="#D9B8FF" font-family="sans-serif" font-size="14" font-weight="bold" lengthAdjust="spacing" textLength="33" x="145" y="173.9717">kind</text><text fill="#D9B8FF" font-family="sans-serif" font-size="14" lengthAdjust="spacing" textLength="48" x="178" y="173.9717">: string</text><text fill="#D9B8FF" font-family="sans-serif" font-size="14" font-weight="bold" lengthAdjust="spacing" textLength="90" x="145" y="200.2686">last_access</text><text fill="#D9B8FF" font-family="sans-serif" font-size="14" lengthAdjust="spacing" textLength="66" x="235" y="200.2686">: duration</text><text fill="#D9B8FF" font-family="sans-serif" font-size="14" font-weight="bold" lengthAdjust="spacing" textLength="90" x="145" y="226.5654">last_update</text><text fill="#D9B8FF" font-family="sans-serif" font-size="14" lengthAdjust="spacing" textLength="66" x="235" y="226.5654">: duration</text><text fill="#D9B8FF" font-family="sans-serif" font-size="14" font-weight="bold" lengthAdjust="spacing" textLength="48" x="145" y="252.8623">mtime</text><text fill="#D9B8FF" font-family="sans-serif" font-size="14" lengthAdjust="spacing" textLength="70" x="193" y="252.8623">: datetime</text><text fill="#D9B8FF" font-family="sans-serif" font-size="14" font-weight="bold" lengthAdjust="spacing" textLength="43" x="145" y="279.1592">name</text><text fill="#D9B8FF" font-family="sans-serif" font-size="14" lengthAdjust="spacing" textLength="48" x="188" y="279.1592">: string</text><text fill="#D9B8FF" font-family="sans-serif" font-size="14" font-weight="bold" lengthAdjust="spacing" textLength="34" x="145" y="305.4561">tags</text><text fill="#D9B8FF" font-family="sans-serif" font-size="14" lengthAdjust="spacing" textLength="171" x="179" y="305.4561">: dictionary[string, string]</text></g><!--reverse link health_check to azure_network_load_balancer_probe--><g id="link_health_check_azure_network_load_balancer_probe"><path codeLine="56" d="M160.2043,634.9787 C174.0543,671.8187 184.07,698.43 199.19,738.65 " fill="none" id="health_check-backto-azure_network_load_balancer_probe" style="stroke:#FFAF37;stroke-width:2.0;"/><polygon fill="none" points="153.87,618.13,154.588,637.0901,165.8205,632.8672,153.87,618.13" style="stroke:#FFAF37;stroke-width:2.0;"/></g><!--reverse link microsoft_resource to azure_network_load_balancer_probe--><g id="link_microsoft_resource_azure_network_load_balancer_probe"><path codeLine="57" d="M351.1784,595.6856 C335.1584,637.6356 317.86,682.91 296.54,738.73 " fill="none" id="microsoft_resource-backto-azure_network_load_balancer_probe" style="stroke:#FFAF37;stroke-width:2.0;"/><polygon fill="none" points="357.6,578.87,345.5732,593.545,356.7836,597.8261,357.6,578.87" style="stroke:#FFAF37;stroke-width:2.0;"/></g><!--reverse link resource to health_check--><g id="link_resource_health_check"><path codeLine="58" d="M187.6212,335.0156 C173.3012,376.0656 164.24,402.03 151.6,438.27 " fill="none" id="resource-backto-health_check" style="stroke:#FFAF37;stroke-width:2.0;"/><polygon fill="none" points="193.55,318.02,181.956,333.0393,193.2864,336.9918,193.55,318.02" style="stroke:#FFAF37;stroke-width:2.0;"/></g><!--reverse link resource to microsoft_resource--><g id="link_resource_microsoft_resource"><path codeLine="59" d="M308.3124,334.9862 C328.6924,392.4962 344.39,436.78 359.02,478.07 " fill="none" id="resource-backto-microsoft_resource" style="stroke:#FFAF37;stroke-width:2.0;"/><polygon fill="none" points="302.3,318.02,302.657,336.9903,313.9678,332.9821,302.3,318.02" style="stroke:#FFAF37;stroke-width:2.0;"/></g><!--SRC=[ZPJ1Rjim38RlUGe3lGKBaAnRqmoxT066xL8Cwsv58J0I7GknHO-Y4wJRtdrId7IoaoQxsUH7_ZyfsOKrc65LopQhi5eW-u5VMLS3GvNTCTDcJYLnTfNda5zF-ydFvEGYS0yLPb-mNADO3NtYHs7rog7tsTiazGdqQidKEDEs5mRdGmgT9DIy1E_lHDWk6i74Z9ajRlEyJ_QRNbsRoVG6Zp1YWxn7nkEncSpwo4MfitE_40_s6RD9khHx4ZooUIIneywwZ4HYycZGG_vLZz_06EkMsViazhtrn0wv4tyemD0cqZcKFfNnWemasnhdHrFXxDRaqvFmrzVWWOwho-2vOLGEPKEyKYM1KGiemMbaLJCjCFir60wj2mtNK2hhb4TDplZXy4CMmZVlGZef2zOLDoLwPLl6XolbbezF0NEa2eHIYcs0zGf35xN00jQM-1yQmIP-Fuhora97goQMpdiab1IClg3Iz592cifERyQV3NfHDKYH9Fxizz4QLBf0lTgDldjIXmMaxLDKnLrtT0wJddGcja9gEdCqxap5mLrbDPEdN5H0g67T7WyAB3lYOVArzPPSF0ul87XYr4uBMEuGqp18g8kHQ78N2-NnEIxZHCoQZdIuWzr0q185MeV_KazXbsbgixUNPAeJEWwgxeR3q6r7gsCPyFQnpRtPCqzXrCvvVlmz6eqkN_d1YJN_Rscl89NlvuvL1dy1]--></g></svg>

<svg xmlns="http://www.w3.org/2000/svg" width="490" height="1004" viewBox="0 0 490 1004"><rect width="347" height="258.164" x="74" y="739.04" fill="#3D176E" rx="2.5" ry="2.5" style="stroke:#000d19;stroke-width:.5"/><circle cx="89" cy="758.934" r="11" fill="#ADD1B2" style="stroke:#181818;stroke-width:1"/><path d="M91.969 764.575q-.578.297-1.219.438-.64.156-1.344.156-2.5 0-3.828-1.64-1.312-1.657-1.312-4.782t1.312-4.781q1.328-1.657 3.828-1.657.703 0 1.344.157.656.156 1.219.453v2.719q-.625-.579-1.219-.844-.594-.281-1.219-.281-1.344 0-2.031 1.078-.687 1.062-.687 3.156t.687 3.172q.688 1.062 2.031 1.062.625 0 1.219-.265.594-.282 1.219-.86z"/><text x="108" y="764.82" fill="#D9B8FF" font-family="Helvetica" font-size="17" textLength="305">azure_network_load_balancer_probe</text><path d="M75 778.829h345" style="stroke:#000d19;stroke-width:.5"/><text x="85" y="800.824" fill="#D9B8FF" font-family="sans-serif" font-size="14" font-weight="bold" textLength="154">interval_in_seconds</text><text x="239" y="800.824" fill="#D9B8FF" font-family="sans-serif" font-size="14" textLength="44">: int64</text><text x="85" y="827.121" fill="#D9B8FF" font-family="sans-serif" font-size="14" font-weight="bold" textLength="192">load_balancing_rules_ids</text><text x="277" y="827.121" fill="#D9B8FF" font-family="sans-serif" font-size="14" textLength="58">: string[]</text><text x="85" y="853.418" fill="#D9B8FF" font-family="sans-serif" font-size="14" font-weight="bold" textLength="244">no_healthy_backends_behavior</text><text x="329" y="853.418" fill="#D9B8FF" font-family="sans-serif" font-size="14" textLength="48">: string</text><text x="85" y="879.715" fill="#D9B8FF" font-family="sans-serif" font-size="14" font-weight="bold" textLength="147">number_of_probes</text><text x="232" y="879.715" fill="#D9B8FF" font-family="sans-serif" font-size="14" textLength="44">: int64</text><text x="85" y="906.012" fill="#D9B8FF" font-family="sans-serif" font-size="14" font-weight="bold" textLength="33">port</text><text x="118" y="906.012" fill="#D9B8FF" font-family="sans-serif" font-size="14" textLength="44">: int64</text><text x="85" y="932.309" fill="#D9B8FF" font-family="sans-serif" font-size="14" font-weight="bold" textLength="130">probe_threshold</text><text x="215" y="932.309" fill="#D9B8FF" font-family="sans-serif" font-size="14" textLength="44">: int64</text><text x="85" y="958.605" fill="#D9B8FF" font-family="sans-serif" font-size="14" font-weight="bold" textLength="66">protocol</text><text x="151" y="958.605" fill="#D9B8FF" font-family="sans-serif" font-size="14" textLength="48">: string</text><text x="85" y="984.902" fill="#D9B8FF" font-family="sans-serif" font-size="14" font-weight="bold" textLength="104">request_path</text><text x="189" y="984.902" fill="#D9B8FF" font-family="sans-serif" font-size="14" textLength="48">: string</text><rect width="227" height="179.273" x="7" y="438.76" fill="#3D176E" rx="2.5" ry="2.5" style="stroke:#000d19;stroke-width:.5"/><circle cx="56.25" cy="458.654" r="11" fill="#ADD1B2" style="stroke:#181818;stroke-width:1"/><path d="M59.219 464.295q-.578.297-1.219.438-.64.156-1.344.156-2.5 0-3.828-1.64-1.312-1.657-1.312-4.782t1.312-4.781q1.328-1.656 3.828-1.656.703 0 1.344.156.656.156 1.219.453v2.719q-.625-.579-1.219-.844-.594-.281-1.219-.281-1.343 0-2.031 1.078-.687 1.062-.687 3.156t.687 3.172q.688 1.062 2.031 1.062.625 0 1.219-.265.594-.281 1.219-.86z"/><text x="81.75" y="464.54" fill="#D9B8FF" font-family="Helvetica" font-size="17" textLength="110">health_check</text><path d="M8 478.549h225" style="stroke:#000d19;stroke-width:.5"/><text x="18" y="500.544" fill="#D9B8FF" font-family="sans-serif" font-size="14" font-weight="bold" textLength="113">check_interval</text><text x="131" y="500.544" fill="#D9B8FF" font-family="sans-serif" font-size="14" textLength="44">: int64</text><text x="18" y="526.841" fill="#D9B8FF" font-family="sans-serif" font-size="14" font-weight="bold" textLength="145">health_check_type</text><text x="163" y="526.841" fill="#D9B8FF" font-family="sans-serif" font-size="14" textLength="48">: string</text><text x="18" y="553.138" fill="#D9B8FF" font-family="sans-serif" font-size="14" font-weight="bold" textLength="141">healthy_threshold</text><text x="159" y="553.138" fill="#D9B8FF" font-family="sans-serif" font-size="14" textLength="44">: int64</text><text x="18" y="579.435" fill="#D9B8FF" font-family="sans-serif" font-size="14" font-weight="bold" textLength="60">timeout</text><text x="78" y="579.435" fill="#D9B8FF" font-family="sans-serif" font-size="14" textLength="44">: int64</text><text x="18" y="605.732" fill="#D9B8FF" font-family="sans-serif" font-size="14" font-weight="bold" textLength="161">unhealthy_threshold</text><text x="179" y="605.732" fill="#D9B8FF" font-family="sans-serif" font-size="14" textLength="44">: int64</text><rect width="214" height="100.383" x="269.5" y="478.21" fill="#3D176E" rx="2.5" ry="2.5" style="stroke:#000d19;stroke-width:.5"/><circle cx="290.8" cy="498.104" r="11" fill="#ADD1B2" style="stroke:#181818;stroke-width:1"/><path d="M293.769 503.745q-.578.297-1.219.438-.64.156-1.344.156-2.5 0-3.828-1.64-1.312-1.657-1.312-4.782t1.312-4.781q1.328-1.657 3.828-1.657.703 0 1.344.157.656.156 1.219.453v2.719q-.625-.579-1.219-.844-.594-.281-1.219-.281-1.344 0-2.031 1.078-.687 1.062-.687 3.156t.687 3.172q.688 1.062 2.031 1.062.625 0 1.219-.265.594-.282 1.219-.86z"/><text x="311.2" y="503.99" fill="#D9B8FF" font-family="Helvetica" font-size="17" textLength="158">microsoft_resource</text><path d="M270.5 517.999h212" style="stroke:#000d19;stroke-width:.5"/><text x="280.5" y="539.994" fill="#D9B8FF" font-family="sans-serif" font-size="14" font-weight="bold" textLength="35">etag</text><text x="315.5" y="539.994" fill="#D9B8FF" font-family="sans-serif" font-size="14" textLength="48">: string</text><text x="280.5" y="566.291" fill="#D9B8FF" font-family="sans-serif" font-size="14" font-weight="bold" textLength="144">provisioning_state</text><text x="424.5" y="566.291" fill="#D9B8FF" font-family="sans-serif" font-size="14" textLength="48">: string</text><rect width="227" height="310.758" x="134" y="7" fill="#3D176E" rx="2.5" ry="2.5" style="stroke:#000d19;stroke-width:.5"/><circle cx="202.75" cy="26.895" r="11" fill="#ADD1B2" style="stroke:#181818;stroke-width:1"/><path d="M205.719 32.535q-.578.297-1.219.438-.64.156-1.344.156-2.5 0-3.828-1.64-1.312-1.657-1.312-4.782t1.312-4.781q1.328-1.656 3.828-1.656.703 0 1.344.156.656.156 1.219.453v2.719q-.625-.578-1.219-.844-.594-.281-1.219-.281-1.344 0-2.031 1.078-.687 1.062-.687 3.156t.687 3.172q.688 1.062 2.031 1.062.625 0 1.219-.265.594-.281 1.219-.86z"/><text x="228.25" y="32.78" fill="#D9B8FF" font-family="Helvetica" font-size="17" textLength="71">resource</text><path d="M135 46.789h225" style="stroke:#000d19;stroke-width:.5"/><text x="145" y="68.784" fill="#D9B8FF" font-family="sans-serif" font-size="14" font-weight="bold" textLength="29">age</text><text x="174" y="68.784" fill="#D9B8FF" font-family="sans-serif" font-size="14" textLength="66">: duration</text><text x="145" y="95.081" fill="#D9B8FF" font-family="sans-serif" font-size="14" font-weight="bold" textLength="43">atime</text><text x="188" y="95.081" fill="#D9B8FF" font-family="sans-serif" font-size="14" textLength="70">: datetime</text><text x="145" y="121.378" fill="#D9B8FF" font-family="sans-serif" font-size="14" font-weight="bold" textLength="43">ctime</text><text x="188" y="121.378" fill="#D9B8FF" font-family="sans-serif" font-size="14" textLength="70">: datetime</text><text x="145" y="147.675" fill="#D9B8FF" font-family="sans-serif" font-size="14" font-weight="bold" textLength="14">id</text><text x="159" y="147.675" fill="#D9B8FF" font-family="sans-serif" font-size="14" textLength="48">: string</text><text x="145" y="173.972" fill="#D9B8FF" font-family="sans-serif" font-size="14" font-weight="bold" textLength="33">kind</text><text x="178" y="173.972" fill="#D9B8FF" font-family="sans-serif" font-size="14" textLength="48">: string</text><text x="145" y="200.269" fill="#D9B8FF" font-family="sans-serif" font-size="14" font-weight="bold" textLength="90">last_access</text><text x="235" y="200.269" fill="#D9B8FF" font-family="sans-serif" font-size="14" textLength="66">: duration</text><text x="145" y="226.565" fill="#D9B8FF" font-family="sans-serif" font-size="14" font-weight="bold" textLength="90">last_update</text><text x="235" y="226.565" fill="#D9B8FF" font-family="sans-serif" font-size="14" textLength="66">: duration</text><text x="145" y="252.862" fill="#D9B8FF" font-family="sans-serif" font-size="14" font-weight="bold" textLength="48">mtime</text><text x="193" y="252.862" fill="#D9B8FF" font-family="sans-serif" font-size="14" textLength="70">: datetime</text><text x="145" y="279.159" fill="#D9B8FF" font-family="sans-serif" font-size="14" font-weight="bold" textLength="43">name</text><text x="188" y="279.159" fill="#D9B8FF" font-family="sans-serif" font-size="14" textLength="48">: string</text><text x="145" y="305.456" fill="#D9B8FF" font-family="sans-serif" font-size="14" font-weight="bold" textLength="34">tags</text><text x="179" y="305.456" fill="#D9B8FF" font-family="sans-serif" font-size="14" textLength="171">: dictionary[string, string]</text><path fill="none" d="M160.204 634.979c13.85 36.84 23.866 63.451 38.986 103.671m-45.32-120.52.718 18.96 11.233-4.223zm197.308-22.444c-16.02 41.95-33.318 87.224-54.638 143.044m61.06-159.86-12.027 14.675 11.21 4.281zM187.621 335.016c-14.32 41.05-23.381 67.014-36.021 103.254m41.95-120.25-11.594 15.02 11.33 3.952z" style="stroke:#ffaf37;stroke-width:2"/><g fill="none"><path d="M308.312 334.986c20.38 57.51 36.078 101.794 50.708 143.084" style="stroke:#ffaf37;stroke-width:2"/><path d="m302.3 318.02.357 18.97 11.31-4.008z" style="stroke:#ffaf37;stroke-width:2"/></g></svg>
